icons/assets/Group 625.svg

<svg width="76" height="76" viewBox="0 0 76 76" fill="none" xmlns="http://www.w3.org/2000/svg">
<rect opacity="0.5" x="46" width="30" height="30" fill="#74CAF4"/>
<path fill-rule="evenodd" clip-rule="evenodd" d="M38.2872 54.0807C38.494 54.0807 38.7007 54.1217 38.8939 54.2069L56.5333 61.8976V14.041H20.041V61.8976L37.6805 54.2069C37.8736 54.1217 38.0804 54.0807 38.2872 54.0807ZM58.0538 65.7384C57.847 65.7384 57.6418 65.6974 57.4471 65.6122L38.2872 57.2601L19.1272 65.6122C18.6604 65.8175 18.1161 65.7719 17.6873 65.4906C17.2585 65.2078 17 64.7303 17 64.2179V12.5205C17 11.6797 17.6797 11 18.5205 11H58.0538C58.8947 11 59.5743 11.6797 59.5743 12.5205V64.2179C59.5743 64.7303 59.3158 65.2078 58.8871 65.4906C58.6362 65.6533 58.3442 65.7384 58.0538 65.7384Z" fill="#0A3B70"/>
<path fill-rule="evenodd" clip-rule="evenodd" d="M32.2066 25.445C31.6486 25.445 31.1118 25.1378 30.8442 24.6041C30.4687 23.853 30.7743 22.9407 31.5254 22.5636L37.6075 19.5226C38.3571 19.15 39.2709 19.4526 39.648 20.2038C40.0236 20.9549 39.7179 21.8672 38.9668 22.2443L32.8847 25.2853C32.6673 25.3933 32.4347 25.445 32.2066 25.445Z" fill="#0A3B70"/>
<path fill-rule="evenodd" clip-rule="evenodd" d="M44.3702 48.2527H32.2061C31.3652 48.2527 30.6855 47.573 30.6855 46.7322C30.6855 45.8913 31.3652 45.2117 32.2061 45.2117H44.3702C45.211 45.2117 45.8907 45.8913 45.8907 46.7322C45.8907 47.573 45.211 48.2527 44.3702 48.2527Z" fill="#0A3B70"/>
<path fill-rule="evenodd" clip-rule="evenodd" d="M38.2861 48.2525C37.4453 48.2525 36.7656 47.5729 36.7656 46.732V20.8833C36.7656 20.0425 37.4453 19.3628 38.2861 19.3628C39.127 19.3628 39.8066 20.0425 39.8066 20.8833V46.732C39.8066 47.5729 39.127 48.2525 38.2861 48.2525Z" fill="#0A3B70"/>
</svg>

<?xml version="1.0" encoding="utf-8"?>
<!-- Generator: Adobe Illustrator 26.0.1, SVG Export Plug-In . SVG Version: 6.00 Build 0)  -->
<svg version="1.1" id="Layer_1" xmlns="http://www.w3.org/2000/svg" xmlns:xlink="http://www.w3.org/1999/xlink" x="0px" y="0px"
	 viewBox="0 0 76 76" style="enable-background:new 0 0 76 76;" xml:space="preserve">
<style type="text/css">
	.st0{opacity:0.5;fill:#74CAF4;enable-background:new    ;}
	.st1{fill-rule:evenodd;clip-rule:evenodd;fill:#0A3B70;}
	.st2{fill:none;stroke:#0A3B70;stroke-width:3;stroke-linecap:round;stroke-miterlimit:10;}
</style>
<rect x="46" class="st0" width="30" height="30"/>
<path class="st1" d="M38.3,54.1c0.2,0,0.4,0,0.6,0.1l17.6,7.7V14H20v47.9l17.6-7.7C37.9,54.1,38.1,54.1,38.3,54.1z M58.1,65.7
	c-0.2,0-0.4,0-0.6-0.1l-19.2-8.4l-19.2,8.4c-0.5,0.2-1,0.2-1.4-0.1c-0.4-0.3-0.7-0.8-0.7-1.3V12.5c0-0.8,0.7-1.5,1.5-1.5h39.5
	c0.8,0,1.5,0.7,1.5,1.5v51.7c0,0.5-0.3,1-0.7,1.3C58.6,65.7,58.3,65.7,58.1,65.7z"/>
<line class="st2" x1="32.2" y1="23.9" x2="38.3" y2="20.9"/>
<line class="st2" x1="38.3" y1="46.4" x2="38.3" y2="20.9"/>
<line class="st2" x1="44.4" y1="46.7" x2="32.3" y2="46.7"/>
</svg>
